X:1066
T:The Two Cousins
T:Passpie Menuet
C:A. J. Vanpelt de Maastricht, 1786-1824
B:From Speelmansbock van Tongeren
R:Minuet
M:3/2
%%MIDI gchord chihch
S:Colin Hume's website,  colinhume.com  - chords can also be printed below the stave.
Q:1/2=96
L:1/4
K:G
"G"GA Bc dB | "G"GB "D"A2 "G"G2 | "C"ef "G"gd cB | "A"AG AB "D"A2 |\
"G"GA Bc d2 | "C"ef ga "G"gd | "C"ed/c/"G"B2 "D"A2 | "G"G6 :|
|: "G"g2 ga bg | "D"f2 fg af | "C"e2 efge | "G"e2 d4 |\
"Am"cBcd"D"ec | "G"BGBdgd | "C"ed/c/"G"B2 "D"A2 | "G"G6 :|

